src/pos-icons/priority-high.svg

<svg height="24" viewBox="0 0 24 24" width="24" xmlns="http://www.w3.org/2000/svg"><path d="m14 19h8v-2h-8zm0-5.5h8v-2h-8zm0-5.5h8v-2h-8zm-12 4.5c0-3.58 2.92-6.5 6.5-6.5h.5v-2l3 3-3 3v-2h-.5c-2.5 0-4.5 2-4.5 4.5s2 4.5 4.5 4.5h3.5v2h-3.5c-3.58 0-6.5-2.92-6.5-6.5z"/></svg>

<?xml version="1.0" encoding="UTF-8"?><!DOCTYPE svg PUBLIC "-//W3C//DTD SVG 1.1//EN" "http://www.w3.org/Graphics/SVG/1.1/DTD/svg11.dtd"><svg xmlns="http://www.w3.org/2000/svg" xmlns:xlink="http://www.w3.org/1999/xlink" version="1.1" id="mdi-priority-high" width="24" height="24" viewBox="0 0 24 24"><path d="M14,19H22V17H14V19M14,13.5H22V11.5H14V13.5M14,8H22V6H14V8M2,12.5C2,8.92 4.92,6 8.5,6H9V4L12,7L9,10V8H8.5C6,8 4,10 4,12.5C4,15 6,17 8.5,17H12V19H8.5C4.92,19 2,16.08 2,12.5Z" /></svg>
